!!!COM: Palestrina, Giovanni Perluigi da
!!!OPR: Missa In duplicibus minoribus (II)
!!!OMD: Gloria
!!!OTL: Domine Deus Agnus
**kern	**kern	**kern	**kern
*Ibass	*Itenor	*Icalto	*Icant
!Bassus	!Tenor	!Altus	!Cantus
*clefF4	*clefGv2	*clefG2	*clefG2
*k[]	*k[]	*k[]	*k[]
*E:phr	*E:phr	*E:phr	*E:phr
*M4/2	*M4/2	*M4/2	*M4/2
=47	=47	=47	=47
0r	1B	0r	2r
.	.	.	2b
.	1c	.	2a
.	.	.	2g
=48	=48	=48	=48
1r	1A	1r	1cc
1E	1G	2r	1b
.	.	2e	.
=49	=49	=49	=49
1F	1.A	2d	2r
.	.	2c	1a
1D	.	1f	.
.	2B	.	4g
.	.	.	4f
=50	=50	=50	=50
1C	2.c	1e	4a
.	.	.	4g
.	.	.	1g
.	4B	.	.
1D	1A	2.d	.
.	.	.	2f#
.	.	4c	.
=51	=51	=51	=51
1E	1G	1B	2g
.	.	.	4e
.	.	.	4f#
1E	2r	1e	4g
.	.	.	4a
.	4G	.	[2b
.	4A	.	.
=52	=52	=52	=52
1G	4B	1d	2b]
.	4c	.	.
.	1d	.	4g
.	.	.	4a
1G	.	2.g	4b
.	.	.	4cc
.	2B	.	2dd
.	.	4f	.
=53	=53	=53	=53
1A	2c	4e	4cc
.	.	4d	4a
.	4A	4c	2.cc
.	4B	4B	.
1A	4c	4A	.
.	4d	4B	4b
.	[2e	2c	[2a
=54	=54	=54	=54
1B	4e]	1d	2a]
.	4d	.	.
.	2d	.	2g#
1A	2c	1e	1a
.	2e	.	.
=55	=55	=55	=55
0r	2d	2r	1a
.	2c	2e	.
.	2B	2d	2g
.	2A	2c	2f
=56	=56	=56	=56
0r	2B	2d	1.g
.	1c	1e	.
.	4B	4d	2g
.	4A	4c	.
=57	=57	=57	=57
0r	2B	2d	1g
.	2c	2e	.
.	4F	2f	1a
.	4G	.	.
.	4A	[2f	.
.	4B	.	.
=58	=58	=58	=58
0r	1c	2f]	1g
.	.	1e	.
.	1d	.	1f
.	.	[2d	.
=59	=59	=59	=59
1r	1A	2d]	1e
.	.	4c#	.
.	.	4B	.
1A	2r	2c#	1e
.	2c#	[2e	.
=60	=60	=60	=60
2G	2B	2e]	2r
2F	2A	2d	2a
[1G	[1B	4d	2g
.	.	4c	.
.	.	4B	4g
.	.	4A	4a
=61	=61	=61	=61
2G]	2B]	2G	4b
.	.	.	4cc
2G	2B	2.g	4dd
.	.	.	4cc
1G	1B	.	4b
.	.	4f	4a
.	.	[2e	4g
.	.	.	4f
=62	=62	=62	=62
1A	1c	2e]	2e
.	.	4d	2f
.	.	4c	.
1G	1B	2d	1g
.	.	[2e	.
=63	=63	=63	=63
1F	2.A	4e]	1.a
.	.	8d	.
.	.	8c	.
.	.	2d	.
.	4B	.	.
1E	2c	1e	.
.	2B	.	2g#
=64	=64	=64	=64
[0E	[0B	[0e	[0g#
=65	=65	=65	=65
0E]	0B]	0e]	0g#]
*-	*-	*-	*-
!!!CDT: 1525/^1526/-1594/2/2
!!!OCY: Italia
!!!AGN: Mass (Paraphrase)
!!!AST: renaissance, vocal
!!!ASW: Gregorian Mass
!!!PWK: Masses, Book Mantuan I
!!!RNB: Cadence finals: A
!!!YOR: Le Opere Complete, v. 18, p. 1
!!!YOO: Rome, Italy: Fratelli Scalera
!!!END: 1992//
!!!EED: John Miller
!!!YEC: Copyright 2000, John Miller
!!!YEN: United States of America
!!!YEM: Rights to all derivative electronic formats reserved.
!!!YEM: Refer to licensing agreement for further details.
!!!YEM: This file must be accompanied by the licensing agreement.
!!!YEM: A copy of the licensing agreement may be found at http://www.music-cog.ohio-state.edu/HumdrumDatabases/Palestrina/license.txt
!!!EMD: converted to Humdrum by Bret Aarden
